X: 22182
T: La Belle Catherine
R: reel
M: 4/4
K: Dmajor
|:DD FA dfed|cc Ac BBGB|A>B>AG FAdf|gg fa ec d2:|
M:6/4
fa (3aaa fd ef gb (3bbb|[M:4/4]fa (3aaa fd ef|gbea fd dd|
M:6/4
fa (3aaa fd ef gb (3bbb|[M:4/4]fa (3aaa fd ef|g2 fa ec dd:|
|:DD FA dfed|cc Ac BBGB|A>B>AG FAdf|gg fa ec d2:|
|:DFAF DF AF|DG BG DGBG|DFAF DF AF|A,CE C A,C EC|
DFAF DF AF|DG BG DGBG|A>B>AG FAdf|gg fa ec d2:|

